mc/waste-theme/assets/themes/natuurpunt/parking.svg

<svg xmlns="http://www.w3.org/2000/svg" viewBox="-12.5 7 35 1">
    <defs>
        <style>.cls-1{fill:#fff;}</style>
    </defs>
    <g id="Layer_2" data-name="Layer 2">
        <g id="Layer_1-2" data-name="Layer 1">
            <path class="cls-1"
                  d="M11.74,3.18h0a3.82,3.82,0,0,0-1-1.65A5.2,5.2,0,0,0,8.79.41a9.55,9.55,0,0,0-3-.41H.57A.58.58,0,0,0,0,.57V15.39A.58.58,0,0,0,.57,16H3.13a.58.58,0,0,0,.58-.57v-4.9a0,0,0,0,1,0,0H5.86a9,9,0,0,0,3-.43,4.85,4.85,0,0,0,1.91-1.18,4.2,4.2,0,0,0,1-1.74,7.47,7.47,0,0,0,.28-2A6.39,6.39,0,0,0,11.74,3.18Zm-3,3h0a1.85,1.85,0,0,1-.52.87,2.38,2.38,0,0,1-1,.53,4.8,4.8,0,0,1-1.48.19h-2a.57.57,0,0,1-.57-.57v-4a.57.57,0,0,1,.57-.57h2a5.59,5.59,0,0,1,1.47.16,2.33,2.33,0,0,1,1,.49,1.71,1.71,0,0,1,.54.81,3.56,3.56,0,0,1,.14,1A3.83,3.83,0,0,1,8.72,6.18Z"/>
        </g>
    </g>
</svg>

<?xml version="1.0" encoding="UTF-8" standalone="no"?>
<svg
   viewBox="-12.5 7 12.050868 16.002609"
   version="1.1"
   id="svg10"
   sodipodi:docname="parking.svg"
   width="12.050868"
   height="16.002609"
   inkscape:version="1.1.1 (1:1.1+202109281949+c3084ef5ed)"
   xmlns:inkscape="http://www.inkscape.org/namespaces/inkscape"
   xmlns:sodipodi="http://sodipodi.sourceforge.net/DTD/sodipodi-0.dtd"
   xmlns="http://www.w3.org/2000/svg"
   xmlns:svg="http://www.w3.org/2000/svg">
  <sodipodi:namedview
     id="namedview12"
     pagecolor="#505050"
     bordercolor="#eeeeee"
     borderopacity="1"
     inkscape:pageshadow="0"
     inkscape:pageopacity="0"
     inkscape:pagecheckerboard="0"
     showgrid="false"
     inkscape:zoom="46.114286"
     inkscape:cx="5.0092937"
     inkscape:cy="7.5139405"
     inkscape:current-layer="svg10" />
  <defs
     id="defs4">
    <style
       id="style2">.cls-1{fill:#fff;}</style>
  </defs>
  <g
     id="Layer_2"
     data-name="Layer 2"
     transform="translate(-12.49922,7.0026088)">
    <g
       id="Layer_1-2"
       data-name="Layer 1">
      <path
         class="cls-1"
         d="m 11.74,3.18 v 0 A 3.82,3.82 0 0 0 10.74,1.53 5.2,5.2 0 0 0 8.79,0.41 9.55,9.55 0 0 0 5.79,0 H 0.57 A 0.58,0.58 0 0 0 0,0.57 V 15.39 A 0.58,0.58 0 0 0 0.57,16 h 2.56 a 0.58,0.58 0 0 0 0.58,-0.57 v -4.9 h 2.15 a 9,9 0 0 0 3,-0.43 4.85,4.85 0 0 0 1.91,-1.18 4.2,4.2 0 0 0 1,-1.74 7.47,7.47 0 0 0 0.28,-2 6.39,6.39 0 0 0 -0.31,-2 z m -3,3 v 0 a 1.85,1.85 0 0 1 -0.52,0.87 2.38,2.38 0 0 1 -1,0.53 4.8,4.8 0 0 1 -1.48,0.19 h -2 A 0.57,0.57 0 0 1 3.17,7.2 v -4 A 0.57,0.57 0 0 1 3.74,2.63 h 2 a 5.59,5.59 0 0 1 1.47,0.16 2.33,2.33 0 0 1 1,0.49 1.71,1.71 0 0 1 0.54,0.81 3.56,3.56 0 0 1 0.14,1 3.83,3.83 0 0 1 -0.17,1.09 z"
         id="path6" />
    </g>
  </g>
</svg>
